X:1
T:What, shall I part thus unregarded? - Kirbye
T:#
%%score { 1 | 2 } 3 4 5
L:1/8
Q:1/4=108
M:4/4
K:C
V:1 treble nm="Soprano I" snm="S"
V:2 treble 
V:3 treble nm="Alto" snm="A"
V:4 treble-8 nm="Tenor" snm="T"
V:5 bass nm="Bass" snm="B"
V:1
"^What, shall I part thus unregarded" z8 | z8 | A6 A"^George Kirbye\n(1565-1634)"B | c6 c2 | %4
w: ||What, shall I|part thus|
 d2 e2 f4 |[M:4/4] e4 z2 e2 | f2 e2 d4- | d4 ^c4 | f8 | e4 z2 e2 | e3 e e2 d2 | ^c4 d4 | z4 z2 e2 | %13
w: un- re- gard-|ed, thus|un- re- gard\-|* ed|From|you, whom|death could not dis-|sev- er,|whom|
 e3 e e2 =c2 | B4 B2 e2 | e3 e e2 c2 | (B2 A2 B4) | ^c4 z2 A2 | d2 ^c2 d2 e2 | %19
w: death could not dis-|sev- er, whom|death could not dis-|sev\- * *|er? Is|faith- ful ser- vice|
 f2 ed !courtesy!=cd e2- | (e2 d2) e4 | z8 | z2 E2 A2 ^G2 | A2 B2 c2 BB | (c2 BA G2) A2 | %25
w: thus cru- el- ly re- ward\-|* * ed,||Is faith- ful|ser- vice thus cru- el-|ly * * * re-|
 (_B2 A4 G2) | A8 | z8 | z2 c2 B2 A2 | ^G4 z2 G2 | A4 z2 =c2 | B2 A2 B4 | ^c4 z2 e2 | e2 d2 e4 | %34
w: ward\- * *|ed?||Why then, vain|hope, a-|dieu, a-|dieu for e-|ver, why|then, vain hope,|
 z2 A2 e4 | z2 A2 e2 f2 | e8 | e8 | z8 | z8 | z4 z2 A2 | d2 ^c2 d2 e2 | f2 ed =cd e2- | %43
w: a\- dieu,|a- dieu for|e-|ver.|||Is|faith- ful ser- vice|thus cru- el- ly re- ward\-|
 (e2 d2) e4 | z4 z2 A2 | d8- | d4 ^c4 | z8 | z2 e2 d2 c2 | B2 B2 e4 | z2 A2 e4- | e2 d2 e4 | %52
w: * * ed,|re-|ward\-|* ed?||Why then, vain|hope, a- dieu,|a- dieu|* for e-|
 e4 z2 =c2 | B2 A2 ^G2 G2 | A4 z2[Q:1/4=106] B2 |[Q:1/4=103] ^c4[Q:1/4=100] z2[Q:1/4=98] d2 | %56
w: ver, why|then, vain hope, a-|dieu, a-|dieu, a-|
[Q:1/4=96] B2[Q:1/4=94] A2[Q:1/4=91] B4 |[Q:1/4=90] !fermata!^c8 |] %58
w: dieu for e-|ver.|
V:2
 A6 AB | c6 c2 | d2 e2 f4- | e4 z4 | A6 AB |[M:4/4] c6 c2 | d2 e2 f4- | f4 e4 | d8 | B8 | z8 | %11
w: What, shall I|part thus|un- re- gard-|ed,|what, shall I|part thus|un- re- gard\-|* ed|From|you,||
 z4 z2 f2 | e3 e e2 c2 | B4 ^c2 e2 | e3 e e2 c2 | B6 E2 | z2 e2 e4 | e8 | z8 | z8 | z4 z2 A2 | %21
w: whom|death could not dis-|sev- er, whom|death could not dis-|sev- er,|dis- sev-|er?|||Is|
 d2 ^c2 d2 e2 | f2 ed =cd (e2- | e2 d2) e4 | z4 z2 A2 | d8- | d4 ^c4 | z8 | z2 e2 d2 c2 | %29
w: faith- ful ser- vice|thus cru- el- ly re- ward\-|* * ed,|re-|ward\-|* ed?||Why then, vain|
 B2 B2 e4 | z2 A2 e4- | e2 d2 e4 | e4 z2 =c2 | B2 A2 ^G2 G2 | A4 z2 B2 | ^c4 z2 d2 | B2 A2 B4 | %37
w: hope, a- dieu,|a- dieu|* for e-|ver, why|then, vain hope, a-|dieu, a-|dieu, a-|dieu for e-|
 ^c4 z2 A2 | d2 ^c2 d2 e2 | f2 ed =cd (e2- | e2 d2) e4 | z8 | z2 E2 A2 ^G2 | A2 B2 c2 BB | %44
w: ver. Is|faith- ful ser- vice|thus cru- el- ly re- ward\-|* * ed,||is faith- ful|ser- vice thus cru- el-|
 (c2 BA G2) A2 | (_B2 A4 G2) | A8 | z8 | z2 c2 B2 A2 | ^G4 z2 G2 | A4 z2 =c2 | B2 A2 B4 | %52
w: ly * * * re-|ward\- * *|ed?||Why then, vain|hope, a-|dieu, a-|dieu for e-|
 ^c4 z2 e2 | e2 d2 e4 | z2 A2 e4 | z2 A2 e2 f2 | e8 | !fermata!e8 |] %58
w: ver, why|then, vain hope,|a- dieu,|a- dieu for|e-|ver.|
V:3
 z8 | z8 | z4 A4- | A2 AG F2 E2 | D2 ^C2 D4 |[M:4/4] A,6 A,2 | A2 A2 A4- | A4 A4 | z4 A4- | %9
w: ||What,|* shall I part thus|un- re- gard-|ed, thus|un- re- gard\-|* ed|From|
 A2 ^G2 z2 G2 | A3 A A2 F2 | E4 ^F2 A2 | ^G3 A B2 A2 | ^G4 A4 | z4 z2 A2 | ^G3 A B2 A2 | %16
w: * you? whom|death could not dis-|sev- er, whom|death could not dis-|sev- er,|whom|death could not dis-|
 (^G2 A4 G2) | A8 | z4 z2 E2 | A2 ^G2 A2 B2 | c2 BA G2 A2 | (_B2 A4 G2) | A4 z2 E2 | F4 E2 B,2 | %24
w: sev\- * *|er?|Is|faith- ful ser- vice|thus cru- el- ly re-|ward\- * *|ed, re-|ward- ed, is|
 E2 D2 E2 F2 | G2 FE D2 E2 | F4 E4 | z2 E2 E2 D2 | E4 z2 E2 | E4 z2 E2 | E4 z2 A2 | ^G2 A4 G2 | %32
w: faith- ful ser- vice|thus cru- el- ly re-|ward- ed?|Why then, vain|hope, a-|dieu, a-|dieu, a-|dieu for e-|
 A4 z2 A2 | G2 F2 E4- | E4 z2 ^G2 | A4 z2 A2 | ^G2 A4 G2 | A8 | z4 z2 E2 | A2 ^G2 A2 B2 | %40
w: ver, why|then, vain hope,|* a-|dieu, a-|dieu for e-|ver.|Is|faith- ful ser- vice|
 c2 BA G2 A2 | (_B2 A4 G2) | A4 z2 E2 | F4 E2 B,2 | E2 D2 E2 F2 | G2 FE D2 E2 | F4 E4 | %47
w: thus cru- el- ly re-|ward\- * *|ed, re-|ward- ed, Is|faith- ful ser- vice|thus cru- el- ly re-|ward- ed?|
 z2 E2 E2 D2 | E4 z2 E2 | E4 z2 E2 | E4 z2 A2 | ^G2 A4 G2 | A4 z2 A2 | G2 F2 E4- | E4 z2 ^G2 | %55
w: Why then, vain|hope, a-|dieu, a-|dieu, a-|dieu for e-|ver, Why|then, vain hope,|* a-|
 A4 z2 A2 | ^G2 A4 G2 | !fermata!A8 |] %58
w: dieu, a-|dieu for e-|ver.|
V:4
 z4 a4- | a2 ag f2 e2 | d2 ^c2 d4 | A8 | z4 a4- |[M:4/4][K:treble-8] a2 ag f2 e2 | d2 ^c2 d4- | %7
w: What,|* shall I part thus|un- re- gard-|ed,|what,|* shall I part thus|un- re- gard\-|
 d4 A4 | A8 | e4 z2 B2 | ^c3 d e2 a2 | a4 a2 d2 | e3 ^f ^g2 a2 | e4 A2 A2 | ^G3 A B2 z2 | %15
w: * ed|From|you, whom|death could not dis-|sev- er, whom|death could not dis-|sev- er, whom|death could not,|
 z2 e2 e3 e | e2 c2 B4 | A8 | z2 A2 d2 ^c2 | d2 e2 f2 ed | c2 g2 e2 e2 | z2 f4 ed | c3 =B A2 E2 | %23
w: whom death could|not dis- sev-|er?|Is faith- ful|ser- vice thus cru- el-|ly re- ward- ed,|thus cru- el-|ly re- ward- ed,|
 z2 D2 A2 ^G2 | A2 B2 c2 BA | G2 A2 _B4 | A8 | z2 c2 =B2 A2 | ^G4 z2 A2 | B4 z2 B2 | ^c4 z2 A2 | %31
w: is faith- ful|ser- vice thus cru- el-|ly re- ward-|ed?|Why then, vain|hope, a-|dieu, a-|dieu, a-|
 e2 f2 e4 | A8 | z4 z2 B2 | ^c4 z2 e2 | e4 z2 A2 | e2 c2 B4 | A8 | z2 A2 d2 ^c2 | d2 e2 f2 ed | %40
w: dieu for e-|ver,|a-|dieu, a-|dieu, a-|dieu for e-|ver.|Is faith- ful|ser- vice thus cru- el-|
 c2 g2 e2 e2 | z2 f4 ed | c3 =B A2 E2 | z2 D2 A2 ^G2 | A2 B2 c2 BA | G2 A2 _B4 | A8 | %47
w: ly re- ward- ed,|thus cru- el-|ly re- ward- ed,|Is faith- ful|ser- vice thus cru- el-|ly re- ward-|ed?|
 z2 c2 =B2 A2 | ^G4 z2 A2 | B4 z2 B2 | ^c4 z2 A2 | e2 f2 e4 | A8 | z4 z2 B2 | ^c4 z2 e2 | %55
w: Why then, vain|hope, a-|dieu, a-|dieu, a-|dieu for e-|ver,|a-|dieu, a-|
 e4 z2 A2 | e2 c2 B4 | !fermata!A8 |] %58
w: dieu, a-|dieu for e-|ver.|
V:5
 z8 | z8 | z8 | z8 | z8 |[M:4/4] z8 | z8 | z8 | D,8 | E,4 z2 E,2 | A,3 B, ^C2 D2 | A,4 D,4 | z8 | %13
w: ||||||||From|you, whom|death could not dis-|sev- er,||
 z4 z2 A,,2 | E,3 ^F, ^G,2 A,2 | E,8- | E,8 | A,,8 | z8 | z2 E,2 A,2 ^G,2 | A,2 B,2 C2 B,A, | %21
w: whom|death could not dis-|sev\-||er?||Is faith- ful|ser- vice thus cru- el-|
 G,2 A,2 _B,4 | A,4 z4 | z8 | z8 | z8 | z8 | A,4 G,2 F,2 | E,4 z2 A,,2 | E,4 z2 E,2 | A,4- z4 | %31
w: ly re- ward-|ed?|||||Why- then, vain|hope, a-|dieu, a-|dieu,|
 z8 | z8 | z4 z2 E,2 | A,4 z2 E,2 | A,6 D,2 | E,8 | A,,8 | z8 | z2 E,2 A,2 ^G,2 | A,2 B,2 C2 B,A, | %41
w: ||a-|dieu, a-|dieu for|e-|ver.||Is faith- ful|ser- vice thus cru- el-|
 G,2 A,2 _B,4 | A,4 z4 | z8 | z8 | z8 | z8 | A,4 G,2 F,2 | E,4 z2 A,,2 | E,4 z2 E,2 | A,4 z4 | z8 | %52
w: ly re- ward-|ed?|||||Why then, vain|hope, a-|dieu, a-|dieu,||
 z8 | z4 z2 E,2 | A,4 z2 E,2 | A,6 D,2 | E,8 | !fermata!A,,8 |] %58
w: |a-|dieu, a-|dieu for|e-|ver.|

